X: 8
T:Ashmolean, The
M:C|
L:1/8
S:Mike Rafferty
R:reel
Z:Lesl Harker,  3/4/1999
K:G
d2B |: AF~FF EDBA | D2ED FAA2 | defd efdB | AFDE FE E2 |
AF~FF EDBA | D2ED FAA2 | ABde dBA2 | BDEG FDD2 :||
|: defg a~aab | afdf edBA | defg a2ab | afdf e2eg |
fdd2 Addf | edAd e2fe | dBAF A~AA2 | BDEG FDD2:||

